icons/figma-light.svg

<svg xmlns="http://www.w3.org/2000/svg" width="256" height="256" fill="none" viewBox="0 0 256 256"><rect width="256" height="256" fill="#F4F2ED" rx="60"/><g clip-path="url(#clip0_4_187)"><path fill="#0ACF83" d="M94.3467 228C112.747 228 127.68 213.067 127.68 194.667V161.333H94.3467C75.9467 161.333 61.0133 176.267 61.0133 194.667C61.0133 213.067 75.9467 228 94.3467 228Z"/><path fill="#A259FF" d="M61.0133 128C61.0133 109.6 75.9467 94.6667 94.3467 94.6667H127.68V161.333H94.3467C75.9467 161.333 61.0133 146.4 61.0133 128Z"/><path fill="#F24E1E" d="M61.0133 61.3333C61.0133 42.9333 75.9467 28 94.3467 28H127.68V94.6667H94.3467C75.9467 94.6667 61.0133 79.7333 61.0133 61.3333Z"/><path fill="#FF7262" d="M127.68 28H161.013C179.413 28 194.347 42.9333 194.347 61.3333C194.347 79.7333 179.413 94.6667 161.013 94.6667H127.68V28Z"/><path fill="#1ABCFE" d="M194.347 128C194.347 146.4 179.413 161.333 161.013 161.333C142.613 161.333 127.68 146.4 127.68 128C127.68 109.6 142.613 94.6667 161.013 94.6667C179.413 94.6667 194.347 109.6 194.347 128Z"/></g><defs><clipPath id="clip0_4_187"><rect width="133.36" height="200" fill="#fff" transform="translate(61 28)"/></clipPath></defs></svg>

<svg xmlns="http://www.w3.org/2000/svg" width="256" height="256" fill="none"><rect width="256" height="256" fill="#F4F2ED" rx="60"/><g clip-path="url(#clip0_4_187)"><path fill="#0ACF83" d="M94.347 228c18.4 0 33.333-14.933 33.333-33.333v-33.334H94.347c-18.4 0-33.334 14.934-33.334 33.334S75.947 228 94.347 228"/><path fill="#A259FF" d="M61.013 128c0-18.4 14.934-33.333 33.334-33.333h33.333v66.666H94.347c-18.4 0-33.334-14.933-33.334-33.333"/><path fill="#F24E1E" d="M61.013 61.333C61.013 42.933 75.947 28 94.347 28h33.333v66.667H94.347c-18.4 0-33.334-14.934-33.334-33.334"/><path fill="#FF7262" d="M127.68 28h33.333c18.4 0 33.334 14.933 33.334 33.333s-14.934 33.334-33.334 33.334H127.68z"/><path fill="#1ABCFE" d="M194.347 128c0 18.4-14.934 33.333-33.334 33.333S127.68 146.4 127.68 128s14.933-33.333 33.333-33.333S194.347 109.6 194.347 128"/></g><defs><clipPath id="clip0_4_187"><path fill="#fff" d="M61 28h133.36v200H61z"/></clipPath></defs></svg>
